X: 29377
T: News Of The Victory
R: jig
M: 6/8
K: Gmajor
|:d|d^cd d^cd|g2G G2B|ABc DEF|1 ,3 GBd d2:|2 ,4 G2B G2||
|:g|fed d2c|Bcd G2B|ABc DEF|1 ,3 GBd d2:|2 ,4 G2B G2||

